packages/core/src/svgs/ela.svg

<svg width="24" height="24" viewBox="0 0 24 24" fill="none" xmlns="http://www.w3.org/2000/svg">
<g clip-path="url(#clip0_31_9795)">
<path d="M0 0H24V24H0V0Z" fill="url(#paint0_linear_31_9795)"/>
<path d="M8.58854 6.42871L12.0115 8.40571L15.5031 6.42871L18.8571 8.40571L12.0115 12.4287L5.14282 8.40571L8.58854 6.42871ZM8.58854 12.4287L12.0115 14.4057L15.5031 12.4287L18.8571 14.4057L12.0115 18.4287L5.14282 14.4057L8.58854 12.4287Z" fill="white"/>
</g>
<defs>
<linearGradient id="paint0_linear_31_9795" x1="4.46486" y1="4.16229" x2="29.2059" y2="32.5787" gradientUnits="userSpaceOnUse">
<stop stop-color="#1A1E21"/>
<stop offset="1" stop-color="#06060A"/>
</linearGradient>
<clipPath id="clip0_31_9795">
<rect width="24" height="24" fill="white"/>
</clipPath>
</defs>
</svg>

<svg xmlns="http://www.w3.org/2000/svg" width="24" height="24" fill="none" viewBox="0 0 24 24"><g clip-path="url(#a)"><path fill="url(#b)" d="M0 0h24v24H0z"/><path fill="#fff" d="m8.589 6.429 3.422 1.977 3.492-1.977 3.354 1.977-6.845 4.023-6.87-4.023zm0 6 3.422 1.977 3.492-1.977 3.354 1.977-6.845 4.023-6.87-4.023z"/></g><defs><linearGradient id="b" x1="4.465" x2="29.206" y1="4.162" y2="32.579" gradientUnits="userSpaceOnUse"><stop stop-color="#1A1E21"/><stop offset="1" stop-color="#06060A"/></linearGradient><clipPath id="a"><path fill="#fff" d="M0 0h24v24H0z"/></clipPath></defs></svg>
